Obsidian-SemiLight/actions/22s/object-ungroup.svg

<svg viewBox="0 0 22 22" xmlns="http://www.w3.org/2000/svg"><path d="m3 3v4h1v-3h3v-1zm12 0v1h3v3h1v-4zm-7.5 2a2.5 2.5 0 0 0 -2.5 2.5 2.5 2.5 0 0 0 2.5 2.5 2.5 2.5 0 0 0 2.5-2.5 2.5 2.5 0 0 0 -2.5-2.5zm4.5 0v5h5v-5zm-6 7v5h3v-5zm8.5 0-2.5 5h5zm-11.5 3v4h4v-1h-3v-3zm15 0v3h-3v1h4v-4z" fill="#4d4d4d"/></svg>

<svg xmlns="http://www.w3.org/2000/svg" viewBox="0 0 22 22">
  <defs id="defs3051">
    <style type="text/css" id="current-color-scheme">
      .ColorScheme-Text {
        color:#4d4d4d;
      }
      .ColorScheme-Highlight {
        color:#3daee9;
      }
      </style>
  </defs>
 <path 
     style="fill:currentColor;fill-opacity:1;stroke:none" 
     d="M 3 3 L 3 7 L 4 7 L 4 4 L 7 4 L 7 3 L 3 3 z M 15 3 L 15 4 L 18 4 L 18 7 L 19 7 L 19 3 L 15 3 z M 7.5 5 A 2.5 2.5 0 0 0 5 7.5 A 2.5 2.5 0 0 0 7.5 10 A 2.5 2.5 0 0 0 10 7.5 A 2.5 2.5 0 0 0 7.5 5 z M 12 5 L 12 10 L 17 10 L 17 5 L 12 5 z M 6 12 L 6 17 L 9 17 L 9 12 L 6 12 z M 14.5 12 L 12 17 L 17 17 L 14.5 12 z M 3 15 L 3 19 L 7 19 L 7 18 L 4 18 L 4 15 L 3 15 z M 18 15 L 18 18 L 15 18 L 15 19 L 19 19 L 19 15 L 18 15 z "
     class="ColorScheme-Text"
     />
</svg>
